Numix-GalliumOS/24/status/polly-active.svg

<?xml version="1.0" encoding="UTF-8" standalone="no"?>
<svg
   xmlns:dc="http://purl.org/dc/elements/1.1/"
   xmlns:cc="http://creativecommons.org/ns#"
   xmlns:rdf="http://www.w3.org/1999/02/22-rdf-syntax-ns#"
   xmlns:svg="http://www.w3.org/2000/svg"
   xmlns="http://www.w3.org/2000/svg"
   xmlns:sodipodi="http://sodipodi.sourceforge.net/DTD/sodipodi-0.dtd"
   xmlns:inkscape="http://www.inkscape.org/namespaces/inkscape"
   width="24"
   height="24"
   viewBox="0 0 24 24"
   id="svg3000"
   version="1.1"
   inkscape:version="0.91 r"
   sodipodi:docname="polly-active.svg">
  <metadata
     id="metadata3010">
    <rdf:RDF>
      <cc:Work
         rdf:about="">
        <dc:format>image/svg+xml</dc:format>
        <dc:type
           rdf:resource="http://purl.org/dc/dcmitype/StillImage" />
      </cc:Work>
    </rdf:RDF>
  </metadata>
  <defs
     id="defs3008" />
  <sodipodi:namedview
     pagecolor="#ffffff"
     bordercolor="#666666"
     borderopacity="1"
     objecttolerance="10"
     gridtolerance="10"
     guidetolerance="10"
     inkscape:pageopacity="0"
     inkscape:pageshadow="2"
     inkscape:window-width="1366"
     inkscape:window-height="747"
     id="namedview3006"
     showgrid="false"
     inkscape:zoom="9.8333333"
     inkscape:cx="-5.1864407"
     inkscape:cy="12"
     inkscape:window-x="0"
     inkscape:window-y="21"
     inkscape:window-maximized="1"
     inkscape:current-layer="svg3000" />
  <path
     style="fill:#54cdee;fill-opacity:1"
     d="M 15.365212,4.2953217 C 13.807567,4.270256 11.974201,4.6820474 10.122931,5.5844071 7.5590839,6.837685 5.6433596,8.7892168 4.7696462,10.912626 4.5297328,10.805202 4.2647546,10.65839 3.9961949,10.482931 2.7321754,9.6521873 2.0482437,8.4203949 2.0482437,8.4203949 c 0,0 -0.3258523,2.4564241 0.7161586,3.9531951 0.5371193,0.76987 1.0993035,1.260439 1.5182561,1.546902 0.057293,0.67677 0.2255901,1.353539 0.5442804,2.005244 1.801139,3.691797 6.9574812,4.884201 11.5122492,2.660529 3.133194,-1.525418 3.870837,-3.917387 3.781317,-6.928834 0.204105,-0.139651 0.372402,-0.275721 0.515634,-0.429695 0.08236,0.02507 0.175459,0.05013 0.229171,0.08594 0.54428,0.347337 0.687512,1.031268 0.687512,1.031268 0,0 0.802098,-1.682973 0.257817,-3.1224505 C 21.423913,8.2091279 20.449938,7.761529 19.69081,7.6469437 19.665744,7.4929694 19.658583,7.3461571 19.633517,7.1886022 19.336311,5.3373326 17.642596,4.3347107 15.365212,4.2953217 Z M 7.0613535,5.1833583 c 0,0 -0.9381673,0.6910928 -1.3177317,1.7187805 -0.00358,0 0.4583414,0.8593902 0.4583414,0.8593902 0,0 0.1110048,-0.1647169 0.7448049,-0.5442804 C 6.8286022,6.1644951 7.0613535,5.1833583 7.0613535,5.1833583 Z m 8.3468285,0.1933633 c 0.76629,0 1.170919,0.5335379 1.170919,1.2210501 0,0.6875122 -0.45118,1.1315304 -1.170919,1.1315304 -0.72332,0 -1.235373,-0.3115291 -1.235373,-1.1780805 0,-0.8629717 0.469083,-1.1745 1.235373,-1.1745 z M 4.4258901,5.9568095 c 0,0 -0.9703942,1.4000902 -1.002622,2.9792195 0,0.010743 1.0599146,0.9453293 1.0599146,0.9453293 0,0 0.085939,-0.329433 0.8020976,-1.1745 C 4.5977681,7.3604803 4.4258901,5.9568095 4.4258901,5.9568095 Z M 18.000676,7.3891266 c 0.03581,0 0.03223,0 0.05729,0 -0.218428,0.064454 -0.676769,0.3151098 -0.973975,1.1745 -0.261398,0.7555477 -0.171878,1.3177317 -0.171878,1.3177317 0,0 -1.045592,0.6445427 -1.088561,1.9193047 -0.02865,0.615896 0.200524,1.289085 1.632841,1.203146 0.486988,0.04297 2.177122,-0.802097 2.177122,-0.802097 0,0 -2.134152,1.890658 -3.766994,1.475286 -1.246116,-0.31511 -1.249696,-1.260439 -1.289085,-1.690134 -0.08594,-1.002622 1.117207,-2.0911827 1.117207,-2.0911827 0,0 -0.09668,-1.1709193 0.36166,-1.7151997 0.891618,-1.1100453 1.62568,-0.7448049 1.944371,-0.791355 z"
     id="path3004"
     inkscape:connector-curvature="0" />
</svg>

<svg xmlns="http://www.w3.org/2000/svg" viewBox="0 0 24 24">
 <path d="m 15.365 4.295 c -1.558 -0.025 -3.391 0.387 -5.242 1.289 -2.564 1.253 -4.48 3.205 -5.353 5.328 -0.24 -0.107 -0.505 -0.254 -0.773 -0.43 -1.264 -0.831 -1.948 -2.063 -1.948 -2.063 c 0 0 -0.326 2.456 0.716 3.953 0.537 0.77 1.099 1.26 1.518 1.547 0.057 0.677 0.226 1.354 0.544 2.01 1.801 3.692 6.957 4.884 11.512 2.661 3.133 -1.525 3.871 -3.917 3.781 -6.929 0.204 -0.14 0.372 -0.276 0.516 -0.43 0.082 0.025 0.175 0.05 0.229 0.086 0.544 0.347 0.688 1.031 0.688 1.031 0 0 0.802 -1.683 0.258 -3.122 c -0.387 -1.013 -1.361 -1.461 -2.12 -1.576 -0.025 -0.154 -0.032 -0.301 -0.057 -0.458 -0.297 -1.851 -1.991 -2.854 -4.268 -2.893 m -8.304 0.888 c 0 0 -0.938 0.691 -1.318 1.719 -0.004 0 0.458 0.859 0.458 0.859 0 0 0.111 -0.165 0.745 -0.544 c -0.118 -1.053 0.115 -2.034 0.115 -2.034 m 8.347 0.193 c 0.766 0 1.171 0.534 1.171 1.221 0 0.688 -0.451 1.132 -1.171 1.132 -0.723 0 -1.235 -0.312 -1.235 -1.178 0 -0.863 0.469 -1.175 1.235 -1.175 z m -10.982 0.58 c 0 0 -0.97 1.4 -1 2.979 0 0.011 1.06 0.945 1.06 0.945 0 0 0.086 -0.329 0.802 -1.175 c -0.688 -1.346 -0.859 -2.75 -0.859 -2.75 m 13.575 1.432 c 0.036 0 0.032 0 0.057 0 -0.218 0.064 -0.677 0.315 -0.974 1.174 -0.261 0.756 -0.172 1.318 -0.172 1.318 0 0 -1.046 0.645 -1.089 1.919 -0.029 0.616 0.201 1.289 1.633 1.203 0.487 0.043 2.177 -0.802 2.177 -0.802 0 0 -2.134 1.891 -3.767 1.475 -1.246 -0.315 -1.25 -1.26 -1.289 -1.69 -0.086 -1 1.117 -2.091 1.117 -2.091 0 0 -0.097 -1.171 0.362 -1.715 0.892 -1.11 1.626 -0.745 1.944 -0.791 z" style="fill:#54cdee;fill-opacity:1"/>
</svg>
